img/folio/eiu/competitor-analysis.svg

<svg width="65" height="65" viewBox="0 0 65 65" fill="none" xmlns="http://www.w3.org/2000/svg">
<g clip-path="url(#clip0)">
<path d="M49.9611 17.7074C49.9611 17.0364 50.4091 16.3644 51.3051 16.1404C54.4421 15.4674 56.9051 10.7654 58.2491 6.95544L57.5771 7.40344C57.1291 7.85044 56.2301 7.62644 55.7851 7.17844C55.3371 6.50444 55.5601 5.83244 56.0091 5.38444L59.8171 2.24844C60.0431 2.24844 60.0431 2.02344 60.2661 2.02344C60.4911 2.02344 60.4911 2.02344 60.7131 2.02344C60.9351 2.02344 60.9381 2.24844 61.1611 2.24844C61.1611 2.24844 61.3851 2.24844 61.3851 2.47544L63.8501 6.95444C64.2971 7.62644 64.0761 8.52244 63.4011 8.74644C63.1781 8.97244 62.9561 8.97244 62.7291 8.97244C62.2841 8.97244 61.8341 8.74644 61.6101 8.29844L60.7141 6.50644C59.5931 10.7634 56.6821 17.4844 51.5291 18.6034H51.3041C50.6331 18.6034 50.1861 18.3784 49.9611 17.7074ZM13.0001 16.3624C9.64008 15.6904 7.40008 10.9874 6.05608 7.17844L6.72808 7.62444C7.17608 8.07244 8.07208 8.07244 8.52008 7.39844C8.96808 6.95244 8.96808 6.05444 8.29608 5.60744L4.48908 2.47244C4.26508 2.47244 4.26508 2.24744 4.04108 2.24744C3.81708 2.24744 3.81708 2.24744 3.59308 2.24744C3.36908 2.24744 3.36908 2.24744 3.14508 2.47244L2.92008 2.69744L0.457076 7.17644C-0.214924 7.85144 0.00907612 8.52344 0.681076 8.97244C0.905076 8.97244 1.12908 9.19544 1.35308 9.19544C1.80108 9.19544 2.24908 8.97244 2.47308 8.52344L3.36908 6.73244C4.71308 10.7634 7.62508 17.7084 12.5531 18.8284H12.7771C13.4491 18.8284 13.8971 18.3804 13.8971 17.9324C14.1211 17.2584 13.6721 16.5864 13.0001 16.3624ZM12.5531 45.4814C7.40108 46.6024 4.48908 53.3214 3.36908 57.5784L2.47308 55.7874C2.24908 55.1154 1.35308 54.8914 0.681076 55.3384C0.00907612 55.7874 -0.214924 56.4594 0.233076 57.1314L2.69708 61.6104C2.69708 61.8344 2.92108 61.8344 2.92108 61.8344C3.14508 61.8344 3.14508 62.0594 3.36908 62.0594H3.59308C3.81708 62.0594 4.26508 62.0594 4.48908 61.8344L8.29708 58.6994C8.74508 58.2504 8.96908 57.5784 8.52108 56.9064C8.07308 56.2334 7.17708 56.2334 6.72908 56.6824L6.05708 57.1264C7.40008 53.3164 9.86508 48.6164 13.0001 47.9414C13.6721 47.7154 14.1201 47.0454 13.8961 46.3764C13.8961 45.7074 13.2251 45.2574 12.5531 45.4814ZM63.3981 55.1154C62.7261 54.8894 62.0541 54.8894 61.6071 55.5614L60.7111 57.3544C59.3671 53.3214 56.4551 46.3754 51.5261 45.2554C50.8541 45.0304 50.1821 45.4814 49.9591 46.1514C49.9591 47.0474 50.4071 47.7184 51.0791 47.7184C54.4381 48.3914 56.6811 53.0964 58.0221 56.9064L57.3501 56.6804C56.9011 56.2314 56.0041 56.2314 55.5571 56.9064C55.1101 57.3524 55.1101 58.2504 55.7831 58.6964L59.5911 61.8344C59.8161 62.0594 60.0391 62.0594 60.4871 62.0594H60.7111C60.9371 62.0594 60.9371 62.0594 61.1591 61.8344L61.3831 61.6084L63.8491 57.1294C64.2971 56.2334 64.0731 55.5624 63.3981 55.1154ZM38.3121 42.1234C31.1451 46.1534 21.9601 43.6904 17.7051 36.5224C13.6731 29.3544 16.1371 20.1684 23.3051 15.9144C30.4731 11.8824 39.6581 14.3474 43.9131 21.5154C48.1681 28.6834 45.7051 38.0894 38.3121 42.1234ZM37.1931 40.1064C43.2421 36.5224 45.2551 28.9064 41.8961 22.8584C38.3121 16.8094 30.6951 14.7944 24.6471 18.1534C18.5991 21.7374 16.3591 29.3544 19.9431 35.4014C23.3051 41.4514 31.1451 43.4664 37.1931 40.1064ZM42.1071 41.0714L35.7081 44.7704L40.7521 53.4984L47.1521 49.7994L42.1071 41.0714ZM41.4491 54.8904C42.5661 56.6834 44.8061 57.3554 46.5991 56.2344C48.3901 55.1174 49.0621 52.8774 47.9431 51.0864L41.4491 54.8904ZM24.2011 35.6264H27.1131V25.7714H24.2011V35.6264ZM29.3531 35.6244H32.2651V29.3534H29.3531V35.6244ZM34.5051 35.6264H37.4171V22.8584H34.5051V35.6264Z" fill="white"/>
</g>
<defs>
<clipPath id="clip0">
<path d="M0 0H64.083V64.083H0V0Z" fill="white"/>
</clipPath>
</defs>
</svg>

<?xml version="1.0" encoding="iso-8859-1"?>
<!-- Generator: Adobe Illustrator 16.0.0, SVG Export Plug-In . SVG Version: 6.00 Build 0)  -->
<!DOCTYPE svg PUBLIC "-//W3C//DTD SVG 1.1//EN" "http://www.w3.org/Graphics/SVG/1.1/DTD/svg11.dtd">
<svg version="1.1" id="Capa_1" xmlns="http://www.w3.org/2000/svg" xmlns:xlink="http://www.w3.org/1999/xlink" x="0px" y="0px"
	 width="64.083px" height="64.083px" viewBox="0 0 64.083 64.083" style="enable-background:new 0 0 64.083 64.083;"
	 xml:space="preserve">
<g>
	<path d="M49.961,17.708c0-0.671,0.448-1.343,1.344-1.567c3.137-0.673,5.6-5.375,6.944-9.185l-0.672,0.448
		c-0.448,0.447-1.347,0.223-1.792-0.225c-0.448-0.674-0.225-1.346,0.224-1.794l3.808-3.136c0.226,0,0.226-0.225,0.449-0.225
		c0.225,0,0.225,0,0.447,0s0.225,0.225,0.448,0.225c0,0,0.224,0,0.224,0.227l2.465,4.479c0.447,0.672,0.226,1.568-0.449,1.792
		c-0.223,0.226-0.445,0.226-0.672,0.226c-0.445,0-0.895-0.226-1.119-0.674l-0.896-1.792c-1.121,4.257-4.032,10.978-9.185,12.097
		h-0.225C50.633,18.604,50.186,18.379,49.961,17.708z M13,16.363c-3.36-0.672-5.6-5.375-6.944-9.184l0.672,0.446
		C7.176,8.073,8.072,8.073,8.52,7.399c0.448-0.446,0.448-1.344-0.224-1.791L4.489,2.473c-0.224,0-0.224-0.225-0.448-0.225
		s-0.224,0-0.448,0c-0.224,0-0.224,0-0.448,0.225L2.92,2.698L0.457,7.177c-0.672,0.675-0.448,1.347,0.224,1.796
		c0.224,0,0.448,0.223,0.672,0.223c0.448,0,0.896-0.223,1.12-0.672l0.896-1.791c1.344,4.031,4.256,10.976,9.184,12.096h0.224
		c0.672,0,1.12-0.448,1.12-0.896C14.121,17.259,13.672,16.587,13,16.363z M12.553,45.482c-5.152,1.121-8.064,7.84-9.184,12.097
		l-0.896-1.791c-0.224-0.672-1.12-0.896-1.792-0.449c-0.672,0.449-0.896,1.121-0.448,1.793l2.464,4.479
		c0,0.224,0.224,0.224,0.224,0.224c0.224,0,0.224,0.225,0.448,0.225h0.224c0.224,0,0.672,0,0.896-0.225L8.297,58.7
		c0.448-0.449,0.672-1.121,0.224-1.793c-0.448-0.673-1.344-0.673-1.792-0.224l-0.672,0.444c1.343-3.81,3.808-8.51,6.943-9.185
		c0.672-0.226,1.12-0.896,0.896-1.565C13.896,45.708,13.225,45.258,12.553,45.482z M63.398,55.116
		c-0.672-0.226-1.344-0.226-1.791,0.446l-0.896,1.793c-1.344-4.033-4.256-10.979-9.185-12.099c-0.672-0.225-1.344,0.226-1.567,0.896
		c0,0.896,0.448,1.567,1.12,1.567c3.359,0.673,5.602,5.378,6.943,9.188l-0.672-0.226c-0.449-0.449-1.346-0.449-1.793,0.226
		c-0.447,0.446-0.447,1.344,0.226,1.79l3.808,3.138c0.225,0.225,0.448,0.225,0.896,0.225h0.224c0.226,0,0.226,0,0.448-0.225
		l0.224-0.226l2.466-4.479C64.297,56.234,64.073,55.563,63.398,55.116z M38.312,42.124c-7.167,4.03-16.352,1.567-20.607-5.601
		c-4.032-7.168-1.568-16.354,5.6-20.608c7.168-4.032,16.353-1.567,20.608,5.601S45.705,38.09,38.312,42.124z M37.193,40.107
		c6.049-3.584,8.062-11.2,4.703-17.248c-3.584-6.049-11.201-8.064-17.249-4.705c-6.048,3.584-8.288,11.201-4.704,17.248
		C23.305,41.452,31.145,43.467,37.193,40.107z M42.107,41.072l-6.399,3.699l5.044,8.728l6.4-3.699L42.107,41.072z M41.449,54.891
		c1.117,1.793,3.357,2.465,5.15,1.344c1.791-1.117,2.463-3.357,1.344-5.148L41.449,54.891z M24.201,35.627h2.912v-9.855h-2.912
		V35.627z M29.353,35.625h2.912v-6.271h-2.912V35.625z M34.505,35.627h2.912V22.859h-2.912V35.627z"/>
</g>
<g>
</g>
<g>
</g>
<g>
</g>
<g>
</g>
<g>
</g>
<g>
</g>
<g>
</g>
<g>
</g>
<g>
</g>
<g>
</g>
<g>
</g>
<g>
</g>
<g>
</g>
<g>
</g>
<g>
</g>
</svg>
